X: 2900
T: Barney's Balmoral
R: reel
M: 4/4
K: Dmajor
|:f2 fA BABd|defA BABd|f2 fA BABd|e2 dB Adde:|
f2 af fafd|e2 fd BdBA|f2 af fafd|e2 dB Adde|
f2 af fafd|e2 fd BdBA|f2 af e2 fA|BBBA Bdda||
fABd f2 ed|aABd efed|aABd f2 ed|e2 dB Adda:|
f2 df e2 de|f2 df edBA|f2 df e2 de|e2 dB Adda|
f2 df e2 de|f2 df edBA|fA ~A2 BABd|e2 dB Adda||

